!!!COM: Frescobaldi, Girolamo
!!!CDT: 1583///-1643
!!!ONM: No. 39
!!!OTL: No. 39: Canzon Quinta &agrave; 4. Canto, Alto, Tenore, Basso.
!!!OPR: Canzoni da sonare a una, due, tre et quattro, libro primo
!!!PPP: Venezia
!!!PDT: 1634
!!!URL: http://icking-music-archive.org/ByComposer/Frescobaldi.html
!!!ONB: Andrea Friggi, ed.
**kern	**kern	**kern	**kern	**kern
!Basso ad Organo	!Basso	!Tenore	!Alto	!Soprano
*staff5	*staff4	*staff3	*staff2	*staff1
*Icello	*Icello	*Iviola	*Ivioln	*Ivioln
*clefF4	*clefF4	*clefC3	*clefG2	*clefG2
*k[b-]	*k[b-]	*k[b-]	*k[b-]	*k[b-]
*met(C)	*met(C)	*met(C)	*met(C)	*met(C)
*M4/4	*M4/4	*M4/4	*M4/4	*M4/4
*MM120	*MM120	*MM120	*MM120	*MM120
=1-	=1-	=1-	=1-	=1-
1D	2r	2r	2r	2dd\
.	2D\	2d\	2f/	[2a/
=2	=2	=2	=2	=2
4.A\	4.A\	4.c#\	4.e/	4a/]
.	.	.	.	4a/
8A\	8A\	8c#\	8e/	.
4A\	4A\	4c#\	4e/	4a/
4D\	4D\	4d\	4f/	8a/L
.	.	.	.	8bn/J
=3	=3	=3	=3	=3
2.C/	2.C/	2.e\	2.g/	2.cc\
4AA/	4AA/	8f\L	8a/L	4cc\
.	.	8e\J	8g/J	.
=4	=4	=4	=4	=4
4BB-/	4BB-/	4d\	4f/	4b-\
4FF/	4FF/	4c\	4f/	4a/
2C/	2C/	2c\	2e/	2g/
=5	=5	=5	=5	=5
2FF/	2FF/	2c\	2f/	1a
4F\	4F\	4r	4c/	.
8F\L	8F\L	4A/	8d/L	.
8F\J	8F\J	.	8d/J	.
=6	=6	=6	=6	=6
4E\	4E\	8Bn/L	4e/	2r
.	.	8c/J	.	.
4D\	4D\	2d\	4f/	.
4A\	4A\	.	2e/	4r
4AA/	4AA/	4c#\	.	8a/L
.	.	.	.	8g/J
=7	=7	=7	=7	=7
2BB-/	4.BB-/	2d\	4.d/	8f/L
.	.	.	.	8d/J
.	.	.	.	4dd\
.	8BB-/	.	8d/	.
2C/	2C/	2r	8e/L	4cc\
.	.	.	8f/	.
.	.	.	8g/	4b-\
.	.	.	8e/J	.
=8	=8	=8	=8	=8
2D\	2D\	4r	2f/	4a/
.	.	8d\L	.	4.ff\
.	.	8c\J	.	.
4B-\	2r	4B-/	2g/	.
.	.	.	.	8ff\
4c\	.	8c/L	.	[4ee\
.	.	8B-/J	.	.
=9	=9	=9	=9	=9
4A\	1r	4A/	2f/	8ee\L]
.	.	.	.	8ee\J
4B-\	.	8B-/L	.	4.dd\
.	.	8A/J	.	.
4G\	.	4G/	2e/	.
.	.	.	.	8dd\
4A\	.	4A/	.	4cc#\
=10	=10	=10	=10	=10
4D\	4r	4D/	2f#/	4dd\
4D\	4D\	4A/	.	8dd\L
.	.	.	.	8dd\J
4E\	8E\L	2G/	2g/	4.cc\
.	8F\J	.	.	.
[4G\	[4G\	.	.	.
.	.	.	.	8b-\
=11	=11	=11	=11	=11
4G\]	4G\]	2A/	2r	8a\L
.	.	.	.	8b-\
4F#\	4F#\	.	.	8cc\
.	.	.	.	8dd\J
2G\	2G\	2d\	4r	4b-\
.	.	.	8g/L	[4b-\
.	.	.	8f/J	.
=12	=12	=12	=12	=12
4c\	2r	4c\	4e/	8b-/L]
.	.	.	.	8a/J
4F\	.	4F/	8f/L	4.a/
.	.	.	8e/J	.
4G\	4r	4.B-/	4.d/	.
.	.	.	.	8g/
4BB-/	4BB-/	.	.	[4g/
.	.	8B-/	16e/LL	.
.	.	.	16d/JJ	.
=13	=13	=13	=13	=13
4C/	4C/	2A/	8c/L	4g/]
.	.	.	8B-/	.
4D\	4D\	.	8A/	4f#/
.	.	.	8d/J	.
4GG/	4GG/	4B-/	2B-/	2g/
[4G\	[4G\	4B-/	.	.
=14	=14	=14	=14	=14
8G\L]	8G\L]	2A/	2r	4r
8F\J	8F\J	.	.	.
4.F\	4.F\	.	.	8dd\L
.	.	.	.	8cc\J
.	.	2G/	4r	8b-/L
8E\	8E\	.	.	8g/
4E\	4E\	.	[4g/	8cc/
.	.	.	.	8b-/J
=15	=15	=15	=15	=15
2F\	2F\	2A/	8g/L]	2a/
.	.	.	8f/J	.
.	.	.	4.f/	.
2C/	2r	4r	.	2g/
.	.	.	8e/	.
.	.	8c/L	[4e/	.
.	.	8B-/J	.	.
=16	=16	=16	=16	=16
4F\	1r	8A/L	8e/L]	2f/
.	.	8F/	8d/J	.
4B-\	.	8B-/	4.d/	.
.	.	8A/J	.	.
4G\	.	8G/L	.	2e/
.	.	16F/L	8d/	.
.	.	16G/JJ	.	.
4A\	.	4A/	4c#/	.
=17	=17	=17	=17	=17
[2D\	4r	2D/	2d/	2f/
.	4.D\	.	.	.
8D/L]	.	2A/	4r	2e/
8C/J	8C/	.	.	.
[4C/	[4C/	.	8a/L	.
.	.	.	8g/J	.
=18	=18	=18	=18	=18
4C/]	4C/]	2d\	8f/L	4r
.	.	.	8d/	.
4BBn/	4BBn/	.	8g/	4.dd\
.	.	.	8f/J	.
4C/	4C/	4G/	4e/	.
.	.	.	.	8cc\
4AA/	4AA/	4A/	8f/L	[4cc\
.	.	.	8e/J	.
=19	=19	=19	=19	=19
4BB-/	4BB-/	4F/	4d/	8cc\L]
.	.	.	.	8b-\J
4GG/	4GG/	4G/	8e/L	4.b-\
.	.	.	8d/J	.
4AA/	4AA/	4E/	2c/	.
.	.	.	.	8a/
4FF/	4FF/	[4F/	.	[4a/
=20	=20	=20	=20	=20
1C	1C	4F/]	[1c	4a/]
.	.	8E/L	.	8g/L
.	.	8D/J	.	8f/J
.	.	2E/	.	2g/
=21	=21	=21	=21	=21
2FF/	1FF	1F	1c]	1a
2F\	.	.	.	.
=22	=22	=22	=22	=22
2D\	1r	2r	4r	4.ff\
.	.	.	4.f/	.
.	.	.	.	8ee\
4B-\	.	4.B-/	.	4.dd\
.	.	.	8e/	.
4A\	.	.	[4d/	.
.	.	8A/	.	8cc\
=23	=23	=23	=23	=23
4G\	1r	4G/	4d/]	8b-/L
.	.	.	.	8a/J
4G\	.	4G/	8g/L	4bn\
.	.	.	8f/J	.
4A\	.	2A/	8e/L	4.cc\
.	.	.	8d/J	.
4AA/	.	.	4e/	.
.	.	.	.	8cc#\
=24	=24	=24	=24	=24
4.BB-/	4.BB-/	2B-/	8d/L	4.dd\
.	.	.	8e/	.
.	.	.	8f/	.
8BB-/	8BB-/	.	8g/J	8dd\
4C/	4C/	2G/	8e/L	4cc\
.	.	.	8f/J	.
4E-\	4E-\	.	[4g/	4b-\
=25	=25	=25	=25	=25
4C/	4C/	4r	4g/]	4a/
4D\	4D\	4.d\	4f#/	4a/
4GG/	4GG/	.	2g/	2b-\
.	.	8c/L	.	.
[4G\	[4G\	8B-/	.	.
.	.	8A/J	.	.
=26	=26	=26	=26	=26
4G\]	8G\L]	4B-/	1r	4r
.	8F\	.	.	.
2E-\	8E-\	2G/	.	4.b-\
.	8D\J	.	.	.
.	4E-\	.	.	.
.	.	.	.	8g/L
4En\	4En\	4G/	.	8cc/
.	.	.	.	8b-/J
=27	=27	=27	=27	=27
4.F\	4F\	4A/	2r	4.a/
.	4F#\	4.d\	.	.
8F#\	.	.	.	8a\L
2G\	2G\	.	4r	8b-\
.	.	8c/L	.	8cc\J
.	.	8B-/	[4g/	[4dd\
.	.	8A/J	.	.
=28	=28	=28	=28	=28
4B-\	1r	4B-/	8g/L]	4dd\]
.	.	.	8f/	.
4Bn\	.	4Bn/	8e/	2dd\
.	.	.	8d/J	.
4.c\	.	4.c\	4e-/	.
.	.	.	4en/	[4cc\
8B-\	.	8B-/	.	.
=29	=29	=29	=29	=29
2A\	1r	8A/L	4.f/	8cc\L]
.	.	8G/J	.	8b-\
.	.	4A/	.	8cc\
.	.	.	8f#/	8a\J
2G\	.	2G/	4g/	4.b-\
.	.	.	4d/	.
.	.	.	.	8a/
=30	=30	=30	=30	=30
2c\	2r	4r	4.e/	8g/L
.	.	.	.	8f/J
.	.	4.c\	.	4g/
.	.	.	16d/LL	.
.	.	.	16e/JJ	.
4.F\	4.F\	.	4f/	2a/
.	.	8B-/L	.	.
.	.	8A/	4c/	.
8E\	8E\	8G/J	.	.
=31	=31	=31	=31	=31
8D/L	8D/L	2A/	4.f/	4r
8C/J	8C/J	.	.	.
4D\	4D\	.	.	4.ff\
.	.	.	8e/	.
4.B-\	4.B-\	2r	2d/	.
.	.	.	.	8ee\L
.	.	.	.	8dd\
8A\	8A\	.	.	8cc\J
=32	=32	=32	=32	=32
2G\	2G\	2r	4B-/	4.dd\
.	.	.	4.g/	.
.	.	.	.	8dd\
4C/	2r	4.c\	.	4ee-\
.	.	.	8f/L	.
4C/	.	.	8e/	4een\
.	.	8B-/	8d/J	.
=33	=33	=33	=33	=33
4.F\	4.F\	8A/L	4c/	4ff\
.	.	8G/J	.	.
.	.	2A/	2f/	4cc\
8E\	8E\	.	.	.
8D/L	8D/L	.	.	2dd\
8C/J	8C/J	.	.	.
4D\	4D\	4A/	4f#/	.
=34	=34	=34	=34	=34
4.E-\	4.E-\	8G/L	4.g/	1r
.	.	8A/J	.	.
.	.	2B-/	.	.
8D\	8D\	.	8f/	.
8C/L	8C/L	.	8e-/L	.
8BB-/J	8BB-/J	.	8d/J	.
4C/	4C/	4A/	4en/	.
=35	=35	=35	=35	=35
2BB-/	2BB-/	4.B-/	8d/L	2r
.	.	.	8e/J	.
.	.	.	2f/	.
.	.	8A/L	.	.
2C/	2C/	8G/	.	4r
.	.	8F/J	.	.
.	.	4G/	4e/	[4cc\
=36	=36	=36	=36	=36
1F	1F	1A	4r	8cc/L]
.	.	.	.	8b-/
.	.	.	4.f/	8a/
.	.	.	.	8g/J
.	.	.	.	4.a/
.	.	.	8e/L	.
.	.	.	8d/	.
.	.	.	8c/J	8a/
=37	=37	=37	=37	=37
4G\	2r	4r	4d/	4b-\
4G\	.	4.G/	8g/L	4bn\
.	.	.	8f/J	.
4.C/	4.C/	.	8e/L	2cc\
.	.	8F/	8d/J	.
.	.	4E/	[4e/	.
8BB-/	8BB-/	.	.	.
=38	=38	=38	=38	=38
4AA/	4AA/	4.A/	4e/]	4.cc#\
4AA/	4AA/	.	4e/	.
.	.	8G/	.	8cc#\
4.BB-/	4.BB-/	8F/L	[2d/	4.dd\
.	.	8E/J	.	.
.	.	4F/	.	.
8AA/	8AA/	.	.	8ccn\
=39	=39	=39	=39	=39
2GG/	2GG/	4G/	4d/]	8b-/L
.	.	.	.	8a/J
.	.	2d\	4g/	4b-\
2AA/	2AA/	.	2e/	2a/
.	.	4c#\	.	.
=40	=40	=40	=40	=40
1D	1D	1d	1f#	1a
=41	=41	=41	=41	=41
*M3/2	*M3/2	*M3/2	*M3/2	*M3/2
2.B-\	1.r	1.r	1.r	2.dd\
4B-\	.	.	.	4dd\
4A\	.	.	.	4cc\
4G\	.	.	.	4b-\
=42	=42	=42	=42	=42
1D	1.r	1.r	2.d/	4a/
.	.	.	.	4f/
.	.	.	.	2b-\
.	.	.	4d/	.
2E\	.	.	2e/	4a/
.	.	.	.	4g/
=43	=43	=43	=43	=43
2.D\	2.D\	2.d\	4f/	1a
.	.	.	4d/	.
.	.	.	4f/	.
4D\	4D\	4d\	4f/	.
2E\	2E\	4c\	4e/	2r
.	.	4B-/	4d/	.
=44	=44	=44	=44	=44
2F\	2F\	2.A/	2c/	2.a/
1D	1D	.	2f/	.
.	.	4A/	.	4a/
.	.	2Bn/	2d/	4g/
.	.	.	.	4f/
=45	=45	=45	=45	=45
1C	1.C	2.c\	1e	4e/
.	.	.	.	4g/
.	.	.	.	4a/
.	.	4B-/	.	4b-\
2A\	.	2A/	2e/	4cc\
.	.	.	.	4a/
=46	=46	=46	=46	=46
2.B-\	1.r	2.B-/	2d/	2.dd\
.	.	.	2g/	.
4G\	.	4G/	.	4ee\
2A\	.	2A/	2e/	2cc#\
=47	=47	=47	=47	=47
1B-	1.r	1B-	4d/	4dd\
.	.	.	4e/	4cc\
.	.	.	2f/	4b-\
.	.	.	.	4a/
2c\	.	2c\	2e/	2g/
=48	=48	=48	=48	=48
2.F\	2.F\	1c	1.f	2.a/
4F\	4F\	.	.	4a/
4E\	4E\	2r	.	2bn\
4D\	4D\	.	.	.
=49	=49	=49	=49	=49
1C	4C/	2.G/	1e	1.cc
.	4D\	.	.	.
.	4E\	.	.	.
.	4C/	4G/	.	.
2F\	2F\	2A/	2r	.
=50	=50	=50	=50	=50
1G	1G	4.B-/	2.d/	1.r
.	.	8c\	.	.
.	.	4B-/	.	.
.	.	4A/	4d/	.
2G\	2G\	2G/	2e/	.
=51	=51	=51	=51	=51
1D	1D	2.A/	4f/	1.r
.	.	.	4d/	.
.	.	.	4f/	.
.	.	4A/	4f/	.
2D\	2r	2Bn/	4e/	.
.	.	.	4d/	.
=52	=52	=52	=52	=52
1C	1.r	4.c\	1e	2.g/
.	.	8d\	.	.
.	.	4c\	.	.
.	.	4c\	.	4g/
2AA/	.	4B-/	2f#/	2a/
.	.	4A/	.	.
=53	=53	=53	=53	=53
2.GG/	2.GG/	2G/	4g/	1b-
.	.	.	4d/	.
.	.	2d\	4g/	.
4GG/	4GG/	.	4g/	.
2AA/	2AA/	2c\	4f/	2a/
.	.	.	4e/	.
=54	=54	=54	=54	=54
2BB-/	2BB-/	1B-	1d	2.dd\
2B-\	2B-\	.	.	.
.	.	.	.	4dd\
2A\	2A\	2r	2r	2cc\
=55	=55	=55	=55	=55
2G\	2G\	2.G/	2.g/	2b-\
2E-\	2E-\	.	.	2cc\
.	.	4G/	4g/	.
2D\	2D\	4A/	2f/	2dd\
.	.	4B-/	.	.
=56	=56	=56	=56	=56
2C/	2C/	1c	2.e-/	1.g
2c\	2c\	.	.	.
.	.	.	4e-/	.
2B-\	2B-\	2r	4d/	.
.	.	.	4en/	.
=57	=57	=57	=57	=57
1F	1A	2.F/	4f/	1.r
.	.	.	4c/	.
.	.	.	4f/	.
.	.	4F/	4f/	.
2G\	2r	4G/	2e-/	.
.	.	4A/	.	.
=58	=58	=58	=58	=58
2.BB-/	2.BB-/	4B-/	2.d/	2.dd\
.	.	4F/	.	.
.	.	4B-/	.	.
4BB-/	4BB-/	4B-/	4d/	4dd\
4C/	4C/	2A/	4e/	2cc\
4D\	4D\	.	4f#/	.
=59	=59	=59	=59	=59
2E-\	2E-\	2.G/	1g	2b-\
1C	1C	.	.	1ee-
.	.	4F/	.	.
.	.	4G/	2g/	.
.	.	4A/	.	.
=60	=60	=60	=60	=60
2.D\	2.D\	4B-/	[1.f	2.dd\
.	.	4F/	.	.
.	.	[1B-	.	.
4C/	4C/	.	.	4ee\
4D\	4D\	.	.	2ff\
4BB-/	4BB-/	.	.	.
=61	=61	=61	=61	=61
1F	1F	2B-/]	1.f]	1cc
.	.	1A	.	.
2FF/	2FF/	.	.	2cc\
=62	=62	=62	=62	=62
*met(C)	*met(C)	*met(C)	*met(C)	*met(C)
*M4/4	*M4/4	*M4/4	*M4/4	*M4/4
1BB-	1BB-	1B-	1f	1dd
=63	=63	=63	=63	=63
2r	2r	2r	2r	1r
2B-\	2B-\	2d\	2f/	.
=64	=64	=64	=64	=64
2B-\	2B-\	2.d\	2.f/	1r
2A\	2A\	.	.	.
.	.	4c\	4f/	.
=65	=65	=65	=65	=65
2G\	2G\	2B-/	4e-/	2r
.	.	.	4d/	.
2F\	2F\	2A/	[2d/	2a/
=66	=66	=66	=66	=66
2.E-\	2.E-\	1G	4d/]	2b-\
.	.	.	4c/	.
.	.	.	[2c/	2cc\
4E-\	4E-\	.	.	.
=67	=67	=67	=67	=67
1D	1D	1F	2c/]	4dd\
.	.	.	.	4ee\
.	.	.	2Bn/	8ff\L
.	.	.	.	8ee\
.	.	.	.	8ee\
.	.	.	.	8dd\J
=68	=68	=68	=68	=68
2C/	2C/	[1G	2c/	2ee-\
2BBn/	2BBn/	.	4r	[2dd\
.	.	.	[4g/	.
=69	=69	=69	=69	=69
1C	1C	2G/]	8g/L]	2dd\]
.	.	.	8f/	.
.	.	.	8e-/	.
.	.	.	8d/J	.
.	.	[2c\	[2e-/	2cc\
=70	=70	=70	=70	=70
1FF	1FF	2c\]	4e-/]	2.a-/
.	.	.	8d/L	.
.	.	.	8c/J	.
.	.	[2c\	4f/	.
.	.	.	4e-/	4a-/
=71	=71	=71	=71	=71
1GG	1GG	2c\]	1d	1g
.	.	2Bn/	.	.
=72	=72	=72	=72	=72
*M3/2	*M3/2	*M3/2	*M3/2	*M3/2
2r	2r	2r	2r	2r
2r	2r	2r	2r	2r
2C/	2C/	2c\	2e/	2g/
=73	=73	=73	=73	=73
4.F\	4.F\	4.A/	4.c/	4.a/
8F\	8F\	8A/	8c/	8a/
4F\	4F\	4A/	4c/	4ff\
4F\	4F\	4A/	4c/	4ff\
2C/	2C/	2G/	2e/	2ee\
=74	=74	=74	=74	=74
2D\	2D\	2F/	2A/	2dd\
4AA/	4AA/	4A/	4c/	4cc\
2BB-/	2BB-/	2F/	2d/	2b-\
4GG/	4GG/	4G/	4d/	4b-\
=75	=75	=75	=75	=75
1AA	1.AA	1E	1c#	1a
2AA/	.	2c#\	2e/	2a/
=76	=76	=76	=76	=76
1D	1.r	4.d\	4.f/	2r
.	.	8d\	8f/	.
.	.	4d\	4f/	2r
.	.	4d\	4f/	.
2A\	.	2c#\	2e/	2ee\
=77	=77	=77	=77	=77
1D	2r	2d\	2.d/	4.ff\
.	.	.	.	8ff\
.	2r	2D/	.	4ff\
.	.	.	4d/	4ff\
2A\	2A\	2A/	2c#/	2ee\
=78	=78	=78	=78	=78
4.B-\	4.B-\	2r	1d	2.dd\
8B-\	8B-\	.	.	.
4B-\	4B-\	2r	.	.
4B-\	4B-\	.	.	4dd\
2A\	2A\	2F/	2a/	2cc\
=79	=79	=79	=79	=79
2G\	2G\	4.B-/	4.d/	1b-
.	.	8B-/	8d/	.
2GG/	2GG/	4B-/	4d/	.
.	.	4B-/	4g/	.
2C/	2C/	2G/	2e/	2cc\
=80	=80	=80	=80	=80
2F\	2F\	2A/	2f/	2a/
4C/	4C/	4c\	4e/	4g/
2D\	2D\	2A/	2d/	2f/
4AA/	4AA/	4A/	4c/	4cc\
=81	=81	=81	=81	=81
4.BB-/	4.BB-/	4.F/	4.d/	4.f/
8BB-/	8BB-/	8F/	8d/	8f/
4BB-/	4BB-/	4D/	4d/	4f/
4BB-/	4BB-/	4D/	4d/	4f/
2GG/	2GG/	2d\	2g/	2b-\
=82	=82	=82	=82	=82
*met(C)	*met(C)	*met(C)	*met(C)	*met(C)
*M4/4	*M4/4	*M4/4	*M4/4	*M4/4
1AA	1AA	1c#	1e	1a
=83	=83	=83	=83	=83
*	*	*MM120	*	*
2.D\	2r	4d\	1r	1r
.	.	8d\L	.	.
.	.	8d\J	.	.
.	8r	4.d\	.	.
.	8D\L	.	.	.
4D\	8F\	.	.	.
.	8D\J	8d\	.	.
=84	=84	=84	=84	=84
2A\	4.A\	8c\L	2r	2r
.	.	8f\	.	.
.	.	8e\	.	.
.	8A\	8f\J	.	.
2B-\	2B-\	2d\	8r	4dd\
.	.	.	8d/L	.
.	.	.	8f/	8dd\L
.	.	.	8d/J	8dd\J
=85	=85	=85	=85	=85
4G\	2r	1r	4g/	4.dd\
4B-\	.	.	8f/L	.
.	.	.	8g/J	8dd\
4A\	4A\	.	2a/	8cc\L
.	.	.	.	8ff\
8A\L	8A\L	.	.	8ee\
8A\J	8A\J	.	.	8ff\J
=86	=86	=86	=86	=86
4.A\	4.A\	1r	2e/	8cc#\L
.	.	.	.	8ee\
.	.	.	.	8dd\
8A\	8A\	.	.	8cc#\J
2D\	8D\L	.	4f/	4dd\
.	8B-\	.	.	.
.	8A\	.	4f/	4ccn\
.	8B-\J	.	.	.
=87	=87	=87	=87	=87
2GG/	8G/L	4d\	2g/	2b-\
.	8GG/	.	.	.
.	8BB-/	8d\L	.	.
.	8GG/J	8d\J	.	.
2D\	4D\	4.d\	2f/	2r
.	8F\L	.	.	.
.	8D\J	8d\	.	.
=88	=88	=88	=88	=88
2.A\	2.A\	8c\L	1r	4a/
.	.	8f\	.	.
.	.	8e\	.	8a/L
.	.	8f\J	.	8a/J
.	.	8c#\L	.	4.a/
.	.	8e\	.	.
4A\	4A\	8d\	.	.
.	.	8c#\J	.	8a/
=89	=89	=89	=89	=89
4B-\	4B-\	4d\	1r	8f/L
.	.	.	.	8b-/
4F\	4F\	2d\	.	8a/
.	.	.	.	8b-/J
2E-\	2E-\	.	.	8g/L
.	.	.	.	8b-/
.	.	[4c\	.	8a/
.	.	.	.	8g/J
=90	=90	=90	=90	=90
1D	1D	4c\]	4d/	4f#/
.	.	4B-/	8d/L	2g/
.	.	.	8d/J	.
.	.	2A/	4.d/	.
.	.	.	.	4f#/
.	.	.	8d/	.
=91	=91	=91	=91	=91
2GG/	2GG/	2G/	8B-/L	2g/
.	.	.	8e/	.
.	.	.	8d/	.
.	.	.	8e/J	.
2AA/	2r	2A/	4f/	8r
.	.	.	.	8a/L
.	.	.	4e/	8cc/
.	.	.	.	8a/J
=92	=92	=92	=92	=92
2BB-/	1r	2B-/	8r	4dd\
.	.	.	8d/L	.
.	.	.	8f/	8dd\L
.	.	.	8d/J	8dd\J
2GG/	.	8r	2g/	4.dd\
.	.	8G/L	.	.
.	.	8B-/	.	.
.	.	8G/J	.	8dd\
=93	=93	=93	=93	=93
1AA	1r	1A	8e/L	8cc\L
.	.	.	8a/	8ff\
.	.	.	8g/	8ee\
.	.	.	8a/J	8ff\J
.	.	.	8f/L	8dd\L
.	.	.	8f/	8dd\
.	.	.	8e/	8cc\
.	.	.	8d/J	8bn\J
=94	=94	=94	=94	=94
4A\	2r	4A/	2e/	8cc#\L
.	.	.	.	8ee\
8A\L	.	8A/L	.	8dd\
8A\J	.	8A/J	.	8cc#\J
4D\	4D\	4.A/	2f/	2dd\
8D\L	8D\L	.	.	.
8D\J	8D\J	8A/	.	.
=95	=95	=95	=95	=95
4.D\	4.D\	8F/L	8r	2a/
.	.	8B-/	8d/L	.
.	.	8A/	8f/	.
8D\	8D\	8B-/J	8d/J	.
8AA\L	8AA\L	2c\	4e/	2r
8A\	8A\	.	.	.
8G\	8G\	.	4f/	.
8A\J	8A\J	.	.	.
=96	=96	=96	=96	=96
4F\	8F\L	2.A/	2d/	4a/
.	8F\	.	.	.
8E\L	8E\	.	.	8a/L
8D\J	8D\J	.	.	8a/J
4C#/	4C#/	.	4e/	4.a/
4D\	4D\	4A/	[4f/	.
.	.	.	.	8a/
=97	=97	=97	=97	=97
4BB-/	4BB-/	4B-/	4f/]	8d/L
.	.	.	.	8dd/
4AA/	4AA/	4c\	4f#/	8cc/
.	.	.	.	8dd/J
2GG/	2GG/	8d/L	2g/	2b-\
.	.	8G/	.	.
.	.	8B-/	.	.
.	.	8G/J	.	.
=98	=98	=98	=98	=98
2C/	8r	2c\	2e/	2g/
.	8C/L	.	.	.
.	8E/	.	.	.
.	8C/J	.	.	.
4.F\	4.F\	8r	8r	2a/
.	.	8A/L	8c/L	.
.	.	8B-/	8d/	.
8E\	8E\	8c/J	8e/J	.
=99	=99	=99	=99	=99
4.D\	4.D\	8d/L	8f/L	2r
.	.	8F/	8A/	.
.	.	8G/	8B-/	.
8C/	8C/	8A/J	8c/J	.
4.BB-/	4.BB-/	8B-/L	[2d/	8r
.	.	8D/	.	8f/L
.	.	8E/	.	8g/
8AA/	8AA/	8F/J	.	8a/J
=100	=100	=100	=100	=100
2GG/	2GG/	4.G/	4d/]	2b-\
.	.	.	2d/	.
.	.	8F/	.	.
2AA/	2AA/	2E/	.	2a/
.	.	.	4c#/	.
=101	=101	=101	=101	=101
0D	0D	0F#	0d	0a
==	==	==	==	==
*-	*-	*-	*-	*-
!!!ENC: Craig Stuart Sapp
!!!END: 2004/12/14/
